X: 1
T: John O'Leary's
M: 2/4
L: 1/8
R: polka
K: Amaj
dB fB | de f2 | dB fB | c/B/A/c/ e2 | dB fB | de f2 | d>e f/e/d | B2 {d}B2 :|!
f>e f/b/a | fe f2 | dB fB |  c/B/A/c/ e2 | f>e f/b/a | fe f2 | d>e f/e/d | B2{d} B2 :|]
